X:1
T:Don't Get Around Much Anymore 
C:Duke Ellington
M:4/4
L:1/8
K:C
ze2d cGFE-|"Cma7"E4-"Dm7"E-"Ebm7"E-"Em7"E2|ze2d cGFE|"A7"E4-"Cma7"E2-"Bm7"E2|
"A7"zG2F EDCc-|"Dm7"c3 A-A4|"G9"zEF^F GC^DE|"C6"C8:|C8|
"F6"d4c A2c-|"F#o7 (Bb9)"c6 c2|"C6/G"d4c G2E-|"C7"E6 c2|
"F6"d4c A2c-|"F#o7 (Bb9)"c6 "B7b9"z2|"Em7"zBBB "Ebo7"BA2G-|"Dm7"Ge2d "G7"cGFE-|
"Cma7"E4-"Dm7"E-"Ebm7"E-"Em7"E2|ze2d cGFE|"A7"E4-"Cma7"E2-"Bm7"E2|zG2F EDCc-|
"Dm7"c3 A-A4|"G9"zEF^F GC^DE|"C6"C8|"Dm7"z4 "G7"z4|]
